X: 7749
T: Colored Aristocracy
R: reel
M: 4/4
K: Gmajor
D2 E2 F2|G2- G>A G>E D2|G6 A2|B2 B>c B>A G2|E8|e2- e>f g>f e2|d2- d>e d2 B2|A2- A>B c2 ^c2|d4 D>E F2|
G2 G>A G>E D2|G4 G2- G>A|B2- B>c B>A G2|E6- E>e|e2 e>f g>f e2|d2 d>e d>c B2|A>^GA>d- d>B A2|G6||
f2|g2- g>a g>e d2|e6 ^d2|e2 e>g e2 d2|B6 d2|c2- c>d e2 d>c|B>^A (3Bc^c d2 B2|A2 B2 c2 ^c2|d2 ^d2 e2- e>f|
g2 g>a g>e d2|e6 ^d2|e2- e>g g>e d2|B6 d2|c2 c>d (3efe d>c|B>^AB>^c d2 B2|B>^AB>d- dB =A2|G2||

